X: 47
T: JIG: Jackie Small's
T: Tailor Small's
C: C: Trad.; S: Polca an Rí
C: Set Leaders: Sophie, Anton
Z: [Unedited]; zoronic at The Session
N: https://thesession.org/members/26966/sets/99584
R: Jig
M: 6/8
L: 1/8
Q: 3/8=116
K: Emix
|:FD|~E3 cEE|BEE AFD|~E3 cdc|BAF AFD|
~E3 cEE|BEE ABc|d2f edB|BAF A:||
|:de|fdf ece|edB ABd|fdf ece|edB B2d|
fdf ece|edB ABc|d2f edB|BAF A:||

